www/img/mcc-icons/repair.svg

<svg width="45" height="44" viewBox="0 0 45 44" xmlns="http://www.w3.org/2000/svg"><g class="nc-icon-wrapper" fill="#444444"><title>repair</title><path d="M42.5 8.6l-5.9 5.9-7.1-7.1 5.9-5.9C34 1.1 32.6.9 31 1c-5.6.5-10.1 5.5-10 11.1 0 1.1.2 2.2.5 3.2l-19.2 17c-2.9 2.5-3 7-.3 9.7 2.7 2.7 7.1 2.6 9.7-.3l17-19.2c1.7.5 3.6.7 5.6.3 4-.8 7.3-3.8 8.4-7.7.5-2.3.4-4.5-.2-6.5z" transform="translate(-140 -2546) translate(140 2545) translate(.5 .5)" stroke="#444444" stroke-width="1" fill="none" fill-rule="evenodd"></path></g></svg>

<?xml version="1.0" encoding="UTF-8" standalone="no"?>
<svg width="45px" height="44px" viewBox="0 0 45 44" version="1.1" xmlns="http://www.w3.org/2000/svg" xmlns:xlink="http://www.w3.org/1999/xlink">
    <!-- Generator: Sketch 3.7.2 (28276) - http://www.bohemiancoding.com/sketch -->
    <title>repair</title>
    <desc>Created with Sketch.</desc>
    <defs></defs>
    <g id="Page-1" stroke="none" stroke-width="1" fill="none" fill-rule="evenodd">
        <g id="-Transaction-icons" transform="translate(-140.000000, -2546.000000)" stroke="#9B9BAB">
            <g id="repair" transform="translate(140.000000, 2545.000000)">
                <g id="Group" transform="translate(0.500000, 0.500000)">
                    <path d="M42.5,8.6 L36.6,14.5 L29.5,7.4 L35.4,1.5 C34,1.1 32.6,0.9 31,1 C25.4,1.5 20.9,6.5 21,12.1 C21,13.2 21.2,14.3 21.5,15.3 L2.3,32.3 C-0.6,34.8 -0.7,39.3 2,42 L2,42 C4.7,44.7 9.1,44.6 11.7,41.7 L28.7,22.5 C30.4,23 32.3,23.2 34.3,22.8 C38.3,22 41.6,19 42.7,15.1 C43.2,12.8 43.1,10.6 42.5,8.6 L42.5,8.6 Z" id="Shape"></path>
                </g>
            </g>
        </g>
    </g>
</svg>
